X:1
T:Title
%%score { ( 1 3 ) | 2 }
L:1/8
Q:1/4=100
M:4/4
K:A
V:1 treble nm="Grand Piano"
V:3 treble 
V:2 bass 
V:1
 [CE]2 [CA]>[DB] [Ec]2 [EA][EA] | .B2 z2 z4 | [DF]2 [EA]>[EA] [EB]2 [Ec]2 | [EB]6 z2 | %4
w: John~R.~Sweney * * * * *||||
 [CE]2 [CA]>[DB] [Ec]2 [EA][EA] | .B2 z2 z4 | A2 EA c2 B2 | [CA]6 z2 | [DA]2 [Fd]>[Fd] [Fd] [Fd]3 | %9
w: |||||
 A2 c>c c c3 | B2 B2 AABB | c8 | [Fd]2 [Fd]>[Fd] [Fd] [Fd]3 | c2 c>c c c3 | %14
w: |||||
 e2 [FB][Fd] [Ec]2 [DB]2 | [CA]6 z2 |] %16
w: ||
V:2
 [A,,A,]2 [A,,E,]>[A,,E,] [A,,A,]2 [C,A,][C,A,] | [D,A,]2 [D,A,]2 [A,,A,]2 [A,,A,][A,,A,] | %2
 [D,A,]2 [C,A,]>[C,A,] [B,,G,]2 [A,,A,]2 | [E,G,]6 z2 | %4
 [A,,A,]2 [A,,E,]>[A,,E,] [A,,A,]2 [C,A,][C,A,] | [D,A,]2 [D,A,]2 [D,A,]2 [D,A,][D,D] | %6
 [E,CE]2 [E,C][E,CE] [E,A,E]2 [E,G,D]2 | [A,,A,]6 z2 | [D,F,]2 [D,A,]>[D,A,] [D,A,] [D,A,]3 | %9
 [A,CE]2 [A,E]>[A,E] [A,E] [A,E]3 | [E,G,E]2 [E,DE]2 [E,DE]2 [E,G,E]2 | [A,E]A,A,A, A,4 | %12
 [D,A,]2 [D,A,]>[D,A,] [D,A,] [D,A,]3 | [A,E]2 [A,E]>[A,E] [A,E] [A,E]3 | %14
 [A,CE]2 [D,D][D,A,] [E,A,]2 [E,G,]2 | [A,,E,A,]6 z2 |] %16
V:3
 x8 | F-[FA][EG][DF] [CE]2 [CE][CE] | x8 | x8 | x8 | F-[FA][EG][DF] [Fd]2 [Fc][FB] | x8 | x8 | x8 | %9
 x8 | x8 | z EEE E4 | x8 | x8 | x8 | x8 |] %16

